icons/ubuntu-filled.svg

<svg width="256" height="256" viewBox="0 0 256 256" fill="none" xmlns="http://www.w3.org/2000/svg">
<path d="M196 0H60C26.8629 0 0 26.8629 0 60V196C0 229.137 26.8629 256 60 256H196C229.137 256 256 229.137 256 196V60C256 26.8629 229.137 0 196 0Z" fill="#F47421"/>
<ellipse cx="167.152" cy="60.5" rx="15.6932" ry="15.5" fill="white"/>
<ellipse cx="167.152" cy="195.5" rx="15.6932" ry="15.5" fill="white"/>
<path fill-rule="evenodd" clip-rule="evenodd" d="M179.011 78.9319C175.686 80.8809 171.805 82 167.658 82C155.356 82 145.384 72.1503 145.384 60L145.384 59.9704C140.029 58.6826 134.434 58 128.678 58C116.52 58 105.083 61.0453 95.1047 66.4057L107.263 87.2048C113.661 83.8809 120.947 82 128.678 82C153.271 82 173.363 101.034 174.677 125H199C198.359 107.091 190.857 90.9061 179.011 78.9319ZM174.611 131H198.957C198.078 148.511 190.636 164.317 179.011 176.068C175.686 174.119 171.805 173 167.658 173C155.356 173 145.384 182.85 145.384 195L145.384 195.03C140.029 196.317 134.434 197 128.678 197C116.75 197 105.515 194.069 95.6715 188.895L107.835 168.087C114.094 171.229 121.176 173 128.678 173C152.928 173 172.802 154.494 174.611 131ZM61.0171 146.652C65.7424 162.967 76.3535 176.828 90.4368 185.851L102.612 165.021C90.5322 156.819 82.6107 143.073 82.6107 127.5C82.6107 111.857 90.6028 98.0585 102.774 89.8694L90.6009 69.0446C76.1908 78.2204 65.3921 92.4523 60.7761 109.201C67.1907 113.063 71.4737 120.037 71.4737 128C71.4737 135.862 67.2978 142.762 61.0171 146.652Z" fill="white"/>
<ellipse cx="48.6932" cy="128.5" rx="15.6932" ry="15.5" fill="white"/>
</svg>

<svg xmlns="http://www.w3.org/2000/svg" width="256" height="256" fill="none"><path fill="#F47421" d="M196 0H60C26.863 0 0 26.863 0 60v136c0 33.137 26.863 60 60 60h136c33.137 0 60-26.863 60-60V60c0-33.137-26.863-60-60-60"/><ellipse cx="167.152" cy="60.5" fill="#fff" rx="15.693" ry="15.5"/><ellipse cx="167.152" cy="195.5" fill="#fff" rx="15.693" ry="15.5"/><path fill="#fff" fill-rule="evenodd" d="M179.011 78.932A22.4 22.4 0 0 1 167.658 82c-12.302 0-22.274-9.85-22.274-22v-.03A71.4 71.4 0 0 0 128.678 58c-12.158 0-23.595 3.045-33.573 8.406l12.158 20.799C113.661 83.88 120.947 82 128.678 82c24.593 0 44.685 19.034 45.999 43H199c-.641-17.909-8.143-34.094-19.989-46.068m-4.4 52.068h24.346c-.879 17.511-8.321 33.317-19.946 45.068A22.4 22.4 0 0 0 167.658 173c-12.302 0-22.274 9.85-22.274 22v.03a71.4 71.4 0 0 1-16.706 1.97c-11.928 0-23.163-2.931-33.006-8.105l12.163-20.808c6.259 3.142 13.341 4.913 20.843 4.913 24.25 0 44.124-18.506 45.933-42M61.017 146.652c4.725 16.315 15.336 30.176 29.42 39.199l12.175-20.83c-12.08-8.202-20.001-21.948-20.001-37.521 0-15.643 7.992-29.442 20.163-37.63L90.601 69.044C76.19 78.22 65.392 92.452 60.776 109.2c6.415 3.862 10.698 10.836 10.698 18.799 0 7.862-4.176 14.762-10.457 18.652" clip-rule="evenodd"/><ellipse cx="48.693" cy="128.5" fill="#fff" rx="15.693" ry="15.5"/></svg>
